X: 314
T: Beyâtî Seyir
C: Erol Bingöl
O: Turkey
F: http://compmusic.upf.edu/node/140
N: beyati--seyir--sofyan--1--erol_bingol
N: makam= beyati
N: form= seyir
N: usul= sofyan = 4/4
M: 4/4
L: 1/16
K: C _2/4B   
Q: 1/4=60
%%MIDI tuningsystem comma53
c4 d4 d2e2 d2c2  | d3c B2c2 d8  | e2f4e2 a2g2 f2e2  | \
w:   |   |   | 
d2c2 B2cB A8  | 
w:   | 
A3B c2d2 _3/4e2^3/4f2 e2d2  | d2_7/8ed c2B2 c8  | \
w:   |   | 
d3_3/4e ^3/4f2g2 a2_b2 a2g2  | 
w:   | 
^3/4f3_3/4e feed d8  | f4 e2f2 a2g2 f2e2  | \
w:   |   | 
fefg e2d2 e3d c4  | 
w:   | 
B2c2 d2e2 f2e2 d2c2  | c3B e2dc c8  | \
w:   |   | 
d2e2 f2g2 e2d2 c2B2  | 
w:   | 
d2c2 B2A2 B8  | B2c2 d2f2 e2d2 c2B2  | \
w:   |   | 
d3c cBBA A8  | |


